!!!COM: Mozart, Wolfgang Amadeus
!!!OTL: String Quartet No. 15 in D Minor
!!!OMD: Andante
!!!OMV: 2
!!!SCT1: K<sup>1</sup> 421
!!!SCA: Chronologisch-thematisches Verzeichnis sämtlicher Tonwerke Wolfgang Amade Mozarts (L. von Köchel; 1862, 2/1905, 3/1937, 1947)
!!!SCT2: K<sup>6</sup> 417b
!!!YOR: Breitkopf & Härtel Edition
!!!ENC: Frances Bennion
!!!CDT: 1756/1/27/-1791/12/5/
!!!OCY: Österreich
!!!YEC: Copyright (c) 1994, 2000 Center for Computer Assisted Research in the Humanities
!!!YEM: Rights to all derivative editions reserved.
!!!YEM: Refer to licensing agreement for further details.
!!!YEN: United States of America
**kern	**kern	**kern	**kern
*k[b-]	*k[b-]	*k[b-]	*k[b-]
*F:	*F:	*F:	*F:
*clefC	*clefF	*clefG	*clefG
*M6/8	*M6/8	*M6/8	*M6/8
8F	8c	8f	8a
8r	8r	8r	8r
8F	8c	8f	8a
4.BB-	4.B-	4.d	8g
.	.	.	8b-
.	.	.	8g
=2	=2	=2	=2
4.C	4A	4c	4f
.	8c	8e	16g
.	.	.	32f
.	.	.	32g
8FF	8c	8f	8a
4r	4r	4r	16r
.	.	.	16A
.	.	.	16c
.	.	.	16f
=3	=3	=3	=3
2.r	2r	8.r	8a
.	.	.	16r
.	.	16A	16c
.	.	16c	16f
.	.	16f	16a
.	.	8a	8cc
.	16r	8a	8cc
.	16F	.	.
.	16A	8a	8cc
.	16c	.	.
=4	=4	=4	=4
8F	8f	8a	8cc
8r	8r	8r	8r
8F	8f	8a	8cc
4.BB-	8f	8b-	8dd
.	8e	8cc	8ee
.	8d	8dd	8ff
=5	=5	=5	=5
4.C	8c	4a	4cc
.	8d	.	.
.	8e	16g	16b-
.	.	32f	32a
.	.	32g	32b-
8FF	8f	8f	8a
4r	4r	4r	16r
.	.	.	16c
.	.	.	16f
.	.	.	16a
=6	=6	=6	=6
2.r	2r	8.r	8cc
.	.	.	16r
.	.	16c	16a
.	.	16f	16cc
.	.	16a	16ff
.	.	8cc	8aa
.	16r	8cc	8aa
.	16F	.	.
.	16A	8cc	8aa
.	16c	.	.
=7	=7	=7	=7
8.r	4.f	4.cc	4.aa
16FF	.	.	.
16AA	.	.	.
16C	.	.	.
8F	8d	8g	8b
16r	16r	16r	16r
16F	16d	16g	16b
16E	16e	16g	16cc
16A	16f	16cc	16ff
=8	=8	=8	=8
4G	4g	8.cc	8.ee
.	.	16dd	16ff
8GG	8f	8b	8dd
8C	8e	8cc	8cc
4r	4r	4r	4r
=9	=9	=9	=9
8c	8e-	8g	8cc
8r	8r	8r	8r
8c	8e-	8g	8cc
4.G	8d	4g	8b
.	4f	.	8dd
.	.	8B	8g
=10	=10	=10	=10
8C	4e-	8c	4gg
8E-	.	8G	.
8G	16.d	8g	16.ff
.	32B	.	32dd
8C	8c	8g	8ee-
4r	4r	4r	4r
=11	=11	=11	=11
4.F#	4.c	4.a	4ee-
.	.	.	16.dd
.	.	.	32a
8G	8B-	8g	8b-
4r	4r	4r	4r
=12	=12	=12	=12
4.E-	4B-	4.g	4dd
.	8G	.	16.cc
.	.	.	32g
8D	8d	8f#	8a
4r	4r	4r	16r
.	.	.	16d
.	.	.	16f#
.	.	.	16a
=13	=13	=13	=13
2r	8.r	2r	8dd
.	.	.	16r
.	16D	.	16d
.	16F#	.	16f#
.	16A	.	16a
.	8d	.	8dd
16r	8A	8f#	8dd
16DD	.	.	.
16FF#	8A	8f#	8dd
16AA	.	.	.
=14	=14	=14	=14
8D	8A	8f#	8dd
4r	4r	4r	4r
8E	8c	8g	8cc
4r	4r	4r	4r
=15	=15	=15	=15
8F	8c	8f	8a
8r	8r	8r	8r
8F	8c	8f	8a
4.BB-	4.B-	4.d	8g
.	.	.	8b-
.	.	.	8g
=16	=16	=16	=16
4.C	4A	4c	4f
.	8c	8e	16g
.	.	.	32f
.	.	.	32g
8FF	8c	8f	8a
4r	4r	4r	16r
.	.	.	16A
.	.	.	16c
.	.	.	16f
=17	=17	=17	=17
2.r	2r	8.r	8a
.	.	.	16r
.	.	16A	16c
.	.	16c	16f
.	.	16f	16a
.	.	8a	8cc
.	16r	8a	8cc
.	16F	.	.
.	16A	8a	8cc
.	16c	.	.
=18	=18	=18	=18
8F	8f	8a	8cc
8r	8r	8r	8r
8F	8f	8a	8cc
4.BB-	8f	8b-	8dd
.	8e	8cc	8ee
.	8d	8dd	8ff
=19	=19	=19	=19
4.C	8c	4a	4cc
.	8d	.	.
.	8e	16g	16b-
.	.	32f	32a
.	.	32g	32b-
8FF	8f	8f	8a
4r	4r	4r	16r
.	.	.	16c
.	.	.	16f
.	.	.	16a
=20	=20	=20	=20
2.r	2r	8.r	8cc
.	.	.	16r
.	.	16c	16f
.	.	16f	16a
.	.	16a	16cc
.	.	8cc	8ee-
.	16r	8ee-	8ccc
.	16A	.	.
.	16c	8ee-	8ccc
.	16f	.	.
=21	=21	=21	=21
8.r	4.a	4.ee-	4.ccc
16FF	.	.	.
16AA	.	.	.
16C	.	.	.
8F	8A	8cc	8ee-
16r	16r	16r	16r
16A	16f	16cc	16ee-
16A	16f	16cc	16ee-
16B-	16f	16b-	16dd
=22	=22	=22	=22
8B-	8f	8b-	8dd
16r	16r	16r	16r
16B-	16g	16dd-	16ee
16B-	16g	16dd-	16ee
16B	16a-	16dd	16ff
8B	8a-	8dd	8ff
16r	16r	16r	16r
16B	16f	16a-	16dd
16B	16f	16a-	16dd
16c	16f	16a	16cc
=23	=23	=23	=23
4.c	4f	8.a	8.cc
.	.	16f	16a
.	8c	8A	8f
4.C	[4.c	8.G	8.b-
.	.	16B-	16g
.	.	8G	8e
=24	=24	=24	=24
8F	8c]	8A	8f
2r	16r	16r	16r
.	16c#	16b-	16ee
.	16d	16a	16ff
.	16B-	16gg	16bb-
.	4c	8.ff	8.aa
.	.	16gg	16bb-
8r	8C	8ee	8gg
=25	=25	=25	=25
8.r	8D	8ff	8ff
.	16r	16r	16r
16C#	16G	16B-	16e
16D	16F	16A	16f
16BB	16A-	16f	16dd
4C	4c	8.f	8.a
.	.	16g	16b-
8CC	8B-	8e	8g
=26a	=26a	=26a	=26a
8FF	8A	8f	8f
8r	8r	8r	16r
.	.	.	16cc
8r	8r	8r	16a
.	.	.	16cc
8F	8c	8a	8ff
8r	8r	8r	8r
8r	8r	8r	8r
=26b	=26b	=26b	=26b
8FF	8A	8f	8f
4r	4r	4r	16r
.	.	.	16cc
.	.	.	16a
.	.	.	16cc
8F	8c	8a	8ff
4r	4r	4r	16r
.	.	.	16f
.	.	.	16c
.	.	.	16f
=27	=27	=27	=27
8F	8c	8f	8a-
8F	8c	8f	8a-
8F	8c	8f	8a-
8F	8c	8f	8a-
4r	4r	4r	16r
.	.	.	16a-
.	.	.	16f
.	.	.	16a-
=28	=28	=28	=28
8C	8e	8g	8cc
8C	8e	8g	8cc
8C	8e	8g	8cc
8C	8e	8g	8cc
4r	4r	4r	16r
.	.	.	16cc
.	.	.	16g
.	.	.	16a-
=29	=29	=29	=29
8D-	8A-	8f	8f
8D-	8A-	8d-	8f
8D-	8A-	8c	8f
8D-	8A-	8B	8f
4r	4r	4r	16r
.	.	.	16e
.	.	.	16f
.	.	.	16g
=30	=30	=30	=30
8C	8E	8G	8c
8C	8E	8G	8c
8C	8E	8G	8c
8C	8E	8G	8c
16r	4r	4r	4r
16C	.	.	.
16E-	.	.	.
16G	.	.	.
=31	=31	=31	=31
8c	8g	8cc	8ee-
16r	8G 8C	8c	8e-
16C	.	.	.
16E-	8r	8r	8r
16G	.	.	.
8c	8cc	8ee-	8gg
16r	8c 8C	8e-	8g
16C	.	.	.
16E-	8r	8r	8r
16G	.	.	.
=32	=32	=32	=32
8c	8dd	8ff	8aa-
16r	8A- 8C	8d	8f
16C	.	.	.
16F	8r	8r	8r
16A-	.	.	.
8BB	8g	8ff	8ddd
16r	8g 8B	8dd	8ff
16G	.	.	.
16B	8r	8r	8r
16G	.	.	.
=33	=33	=33	=33
8c	16r	16r	16r
.	16g	16cc	16ee-
8r	16g	16ee-	16ccc
.	16g	16ee-	16ccc
8A-	16r	16r	16r
.	16a-	16ee-	16ccc
8F	16r	16r	16r
.	16a-	16dd	16ccc
8r	16a-	16dd	16ccc
.	16a-	16dd	16ccc
8G	16r	16r	16r
.	16g	16dd	16bb
=34	=34	=34	=34
8C	8g	8ee-	8ccc
8CC	8G	8e-	8cc
8CC	8G	8e-	8cc
8CC	8G	8e-	8cc
4r	4r	4r	4r
=35	=35	=35	=35
[2.AA-	4.A-	[4.e- 4.c	4..cc
.	4.G	4.e-_ 4.d-	.
.	.	.	16b-
.	.	.	16ee-
.	.	.	16dd-
.	.	.	16cc
.	.	.	16b-
=36	=36	=36	=36
4.AA-]	4.A-	4.e-] 4.c	16a-
.	.	.	16cc
.	.	.	16ee-
.	.	.	16e-
.	.	.	16e-
.	.	.	16e-
[4.AA-	16D-	16G	4e-
.	16G	16B-	.
.	16B-	16d-	.
.	16B-	16d-	.
.	16G	16d-	[8ee-
.	16G	16d-	.
=37	=37	=37	=37
2.AA-_	[4.e- 4.A-	4.e- 4.c	16ee-]
.	.	.	16aa-
.	.	.	16gg
.	.	.	16gg-
.	.	.	16ff
.	.	.	16ee
.	4.e-_ 4.d-	4.g 4.B-	16ee-
.	.	.	16dd
.	.	.	16dd-
.	.	.	16cc
.	.	.	16dd-
.	.	.	16b-
=38	=38	=38	=38
4.AA-]	4.e-] 4.c	4.a- [4.A-	16a-
.	.	.	16cc
.	.	.	16ee-
.	.	.	16e-
.	.	.	16e-
.	.	.	16e-
[4.AA-	16E-	4.g- 4.A-]	4e-
.	16A-	.	.
.	16c	.	.
.	16c	.	.
.	16c	.	[8ee-
.	16c	.	.
=39	=39	=39	=39
2.AA-_	[2.A-	4.f	16ee-]
.	.	.	16dd
.	.	.	16dd-
.	.	.	16dd-
.	.	.	16dd-
.	.	.	16dd-
.	.	4.e-	16dd-
.	.	.	16cc
.	.	.	16b
.	.	.	16cc
.	.	.	16dd-
.	.	.	16ee-
=40	=40	=40	=40
2.AA-]	2.A-]	4.d-	16ee
.	.	.	16ff
.	.	.	16gg
.	.	.	16ff
.	.	.	16aa-
.	.	.	16ff
.	.	8.c	16ff
.	.	.	16ee-
.	.	.	16aa-
.	.	16e-	16gg
.	.	16d-	16ff
.	.	16c	16ee-
=41	=41	=41	=41
8D-	8F	16c	16ee-
.	.	16B-	16dd-
8r	8r	16A	16cc
.	.	16B-	16dd-
8D-	8F	16d-	16ff
.	.	16B-	16dd-
8E-	8E-	16B-	16dd-
.	.	16A-	16cc
8r	8r	16G	16b
.	.	16A-	16cc
8EE-	8D-	16B-	16dd-
.	.	16G	16b-
=42	=42	=42	=42
8AA-	8C	16A-	16a-
.	.	16A-	16a-
2r	2r	16c	16cc
.	.	16c	16cc
.	.	16e-	16ee-
.	.	16e-	16ee-
.	.	8A-	8a-
.	.	4r	16r
.	.	.	16c
8r	8r	.	16f
.	.	.	16g
=43	=43	=43	=43
8F	8c	8f	8a-
8F	8c	8f	8a-
8F	8c	8f	8a-
8F	8c	8f	8a-
4r	4r	4r	16r
.	.	.	16f
.	.	.	16a-
.	.	.	16b-
=44	=44	=44	=44
8E-	8c	8g	8cc
8E-	8c	8g	8cc
8E-	8c	8g	8cc
8E-	8c	8g	8cc
4r	4r	4r	16r
.	.	.	16cc
.	.	.	16a-
.	.	.	16g
=45	=45	=45	=45
8D-	8c	8A-	8f
8D-	8d-	8A-	8f
8D-	8c	8A-	8f
8D-	8B	8G	8f
4r	4r	4r	16r
.	.	.	16e
.	.	.	16f
.	.	.	16g
=46	=46	=46	=46
8C	8E	8G	8c
8C	8E	8G	8c
8C	8E	8G	8c
8C	8E	8G	8c
16r	4r	4r	4r
16C	.	.	.
16E	.	.	.
16G	.	.	.
=47	=47	=47	=47
8c	8c	8g	8cc 8e 8G
16r	8E	8G	8c
16C	.	.	.
16E	8r	8r	8r
16G	.	.	.
8c	8c	8cc 8e 8G	8ee 8g 8c
16r	8E	8G	8c
16C	.	.	.
16E	8r	8r	8r
16G	.	.	.
=48	=48	=48	=48
8c	8c	8ee 8g 8c	8gg 8cc 8e
16r	8E	8G	8c
16C	.	.	.
16E	8r	8r	8r
16G	.	.	.
8c	8c	8gg 8cc 8e	8ccc 8ee 8g
16r	8E	8G	8c
16CC	.	.	.
16EE	8r	8r	8r
16GG	.	.	.
=49	=49	=49	=49
8C	8.r	2.r	2r
2r	.	.	.
.	16C	.	.
.	16E	.	.
.	16G	.	.
.	8c	.	.
.	4r	.	16r
.	.	.	16c
8r	.	.	16e
.	.	.	16g
=50	=50	=50	=50
2r	8.r	8.r	8cc
.	.	.	8cc
.	16E	16G	.
.	16G	16c	8cc
.	16c	16e	.
.	8e	8g	4.cc
16r	8e	8g	.
16C	.	.	.
16E	8e	8g	.
16G	.	.	.
=51	=51	=51	=51
8c	4.d	4.f	4.b
8c	.	.	.
8c	.	.	.
4.c	4.e	4.g	8.b-
.	.	.	16c
.	.	.	16g
.	.	.	16b-
=52	=52	=52	=52
8F	8c	8f	8a
8r	8r	8r	8r
8F	8c	8f	8a
4.BB-	4.B-	4.d	8g
.	.	.	8b-
.	.	.	8g
=53	=53	=53	=53
4.C	4A	4c	4f
.	8c	8e	16g
.	.	.	32f
.	.	.	32g
8FF	8c	8f	8a
4r	4r	4r	16r
.	.	.	16A
.	.	.	16c
.	.	.	16f
=54	=54	=54	=54
2.r	2r	8.r	8a
.	.	.	16r
.	.	16A	16c
.	.	16c	16f
.	.	16f	16a
.	.	8a	8cc
.	16r	8a	8cc
.	16F	.	.
.	16A	8a	8cc
.	16c	.	.
=55	=55	=55	=55
8F	8f	8a	8cc
8r	8r	8r	8r
8F	8f	8a	8cc
4.BB-	8f	8b-	8dd
.	8e	8cc	8ee
.	8d	8dd	8ff
=56	=56	=56	=56
4.C	8c	4a	4cc
.	8d	.	.
.	8e	16g	16b-
.	.	32f	32a
.	.	32g	32b-
8FF	8f	8f	8a
4r	4r	4r	16r
.	.	.	16c
.	.	.	16f
.	.	.	16a
=57	=57	=57	=57
2.r	2r	8.r	8cc
.	.	.	16r
.	.	16c	16a
.	.	16f	16cc
.	.	16a	16ff
.	.	8cc	8aa
.	16r	8cc	8aa
.	16F	.	.
.	16A	8cc	8aa
.	16c	.	.
=58	=58	=58	=58
8.r	4.f	4.cc	4.aa
16FF	.	.	.
16AA	.	.	.
16C	.	.	.
8F	8d	8g	8b
16r	16r	16r	16r
16F	16d	16g	16b
16E	16e	16g	16cc
16A	16f	16cc	16ff
=59	=59	=59	=59
4G	4g	8.cc	8.ee
.	.	16dd	16ff
8GG	8f	8b	8dd
8C	8e	8cc	8cc
4r	4r	4r	4r
=60	=60	=60	=60
8c	8e-	8g	8cc
8r	8r	8r	8r
8c	8e-	8g	8cc
4.G	8d	4g	8b
.	4f	.	8dd
.	.	8B	8g
=61	=61	=61	=61
8C	4e-	8c	4gg
8E-	.	8G	.
8G	16.d	8g	16.ff
.	32B	.	32dd
8C	8c	8g	8ee-
4r	4r	4r	4r
=62	=62	=62	=62
4.F#	4.c	4.a	4ee-
.	.	.	16.dd
.	.	.	32a
8G	8B-	8g	8b-
4r	4r	4r	4r
=63	=63	=63	=63
4.E-	4B-	4.g	4dd
.	8G	.	16.cc
.	.	.	32g
8D	8d	8f#	8a
4r	4r	4r	16r
.	.	.	16d
.	.	.	16f#
.	.	.	16a
=64	=64	=64	=64
2r	8.r	2r	8dd
.	.	.	16r
.	16D	.	16d
.	16F#	.	16f#
.	16A	.	16a
.	8d	.	8dd
16r	8A	8f#	8dd
16DD	.	.	.
16FF#	8A	8f#	8dd
16AA	.	.	.
=65	=65	=65	=65
8D	8A	8f#	8dd
4r	4r	4r	4r
8E	8c	8g	8cc
4r	4r	4r	4r
=66	=66	=66	=66
4F	8c	8f	8a
.	8r	8r	8r
8F	8c	8f	8a
4.BB-	4.B-	4.d	8g
.	.	.	8b-
.	.	.	8g
=67	=67	=67	=67
4.C	4A	4c	4f
.	8c	8e	16g
.	.	.	32f
.	.	.	32g
8FF	8c	8f	8a
4r	4r	4r	16r
.	.	.	16A
.	.	.	16c
.	.	.	16f
=68	=68	=68	=68
2.r	2r	8.r	8a
.	.	.	16r
.	.	16A	16c
.	.	16c	16f
.	.	16f	16a
.	.	8a	8cc
.	16r	8a	8cc
.	16F	.	.
.	16A	8a	8cc
.	16c	.	.
=69	=69	=69	=69
8F	8f	8a	8cc
8r	8r	8r	8r
8F	8f	8a	8cc
4.BB-	8f	8b-	8dd
.	8e	8cc	8ee
.	8d	8dd	8ff
=70	=70	=70	=70
4.C	8c	4a	4cc
.	8d	.	.
.	8e	16g	16b-
.	.	32f	32a
.	.	32g	32b-
8FF	8f	8f	8a
4r	4r	4r	16r
.	.	.	16c
.	.	.	16f
.	.	.	16a
=71	=71	=71	=71
2.r	2r	8.r	8cc
.	.	.	16r
.	.	16c	16f
.	.	16f	16a
.	.	16a	16cc
.	.	8cc	8ee-
.	16r	8ee-	8ccc
.	16A	.	.
.	16c	8ee-	8ccc
.	16f	.	.
=72	=72	=72	=72
8.r	4.a	4.ee-	4.ccc
16FF	.	.	.
16AA	.	.	.
16C	.	.	.
8F	8A	8cc	8ee-
16r	16r	16r	16r
16A	16f	16cc	16ee-
16A	16f	16cc	16ee-
16B-	16f	16b-	16dd
=73	=73	=73	=73
8B-	8f	8b-	8dd
16r	16r	16r	16r
16B-	16g	16dd-	16ee
16B-	16g	16dd-	16ee
16B	16a-	16dd	16ff
8B	8a-	8dd	8ff
16r	16r	16r	16r
16B	16f	16a-	16dd
16B	16f	16a-	16dd
16c	16f	16a	16cc
=74	=74	=74	=74
4.c	4f	8.a	8.cc
.	.	16f	16a
.	8c	8A	8f
4.C	[4.c	8.G	8.b-
.	.	16B-	16g
.	.	8G	8e
=75	=75	=75	=75
8F	8c]	8A	8f
2r	16r	16r	16r
.	16c#	16b-	16ee
.	16d	16a	16ff
.	16B-	16gg	16bb-
.	4c	8.ff	8.aa
.	.	16gg	16bb-
8r	8C	8ee	8gg
=76	=76	=76	=76
8.r	8D	8ff	8ff
.	16r	16r	16r
16C#	16G	16B-	16e
16D	16F	16A	16f
16BB	16A-	16f	16dd
4C	4c	8.f	8.a
.	.	16g	16b-
8CC	8B-	8e	8g
=77	=77	=77	=77
8FF	8A	8f	8f
4r	4r	4r	16r
.	.	.	16cc
.	.	.	16a
.	.	.	16cc
8F	8c	8a	8ff
4r	4r	4r	16r
.	.	.	16cc
.	.	.	16a
.	.	.	16cc
=78	=78	=78	=78
8A	8f	8cc	8ee-
4r	4r	4r	16r
.	.	.	16cc
.	.	.	16f
.	.	.	16cc
8B-	8f	8b-	8dd
4r	4r	4r	16r
.	.	.	16dd
.	.	.	16b-
.	.	.	16dd
=79	=79	=79	=79
8B	8d	8a-	8ff
4..r	4..r	4..r	16r
.	.	.	16ff
.	.	.	16dd
.	.	.	16ff
.	.	.	8aa-
.	.	.	4r
16D	16d	16d	.
16BB	16B	16B	.
16D	16d	16d	.
=80	=80	=80	=80
8F	8f	8f	8.r
2r	2r	4.r	.
.	.	.	16f
.	.	.	16d
.	.	.	16f
.	.	.	8a
.	.	8f	8a
8r	8r	8f	8a
=81	=81	=81	=81
2r	8.r	2f	2a
.	16A	.	.
.	16F	.	.
.	16A	.	.
.	[4.c	.	.
16r	.	8g	8b-
16EE	.	.	.
16CC	.	16r	16r
16EE	.	16B-	16g
=82	=82	=82	=82
8FF	8c]	8A	8f
4r	4r	4r	4r
4.c	4.e	4.g	4cc
.	.	.	16.b-
.	.	.	32g
=83	=83	=83	=83
8f	8f	8f	8a
4r	4r	4r	4r
4.C	[4.c	4c	4a
.	.	16.B-	16.g
.	.	32G	32e
=84	=84	=84	=84
8F	8c]	8A	8f
2r	2r	4..r	16r
.	.	.	16A
.	.	.	16c
.	.	.	16f
.	.	.	8a
.	.	.	16r
.	.	16A	16c
8r	8r	16c	16f
.	.	16f	16a
=85	=85	=85	=85
2r	8.r	8a	8cc
.	.	16r	16r
.	16A	16c	16f
.	16c	16f	16a
.	16f	16a	16cc
.	8a	8cc	8ff
16r	8a	8cc	8ff
16FF	.	.	.
16AA	8a	8cc	8ff
16C	.	.	.
=86	=86	=86	=86
8F	8a	8cc	8ff
2r	2r	2r	2r
8r	8r	8r	8r
==	==	==	==
*-	*-	*-	*-
!!!RWG1: This file contains only pitch and duration data.
!!!RWG2: Transposing instruments are not transposed.
!!!RWG3: Spines may have incompatible meters.
!!!RWG4: Durations of rests and tied notes may be interpreted.
!!!RWG: Key is interpreted using the Humdrum key tool.
!!!AFT: stage1
!!!END: 1997/04/15
!!!KEY: 3927291350
!!!EMD: Converted from MuseData to Humdrum Dec 16, 2000, by Andreas Kornstaedt using muse2kern.
!!!EMD: Manual editing by Craig Sapp, Nov 2001
